X: 2524
T: Ballydesmond, The
R: polka
M: 2/4
K: Adorian
|:E>A AB|cd e2|G>F GA|GE ED|
E>A AB|cd e>f|ge dB|A2 A2:|
|:a>g ab|ag ef|g>f ga|ge de|
a>g ab|ag e>f|ge dB|A2 A2:|

